Sources/FrostedUI/Resources/Icons.xcassets/bitcoin12.imageset/bitcoin-12.svg

<svg width="12" height="12" viewBox="0 0 12 12" fill="none" xmlns="http://www.w3.org/2000/svg" data-fui-icon="true">
  <g clip-path="url(#clip0_882_392)">
    <path
      d="M6 0C9.31371 0 12 2.68629 12 6C12 9.31371 9.31371 12 6 12C2.68629 12 0 9.31371 0 6C0 2.68629 2.68629 0 6 0ZM6 1.5C3.51472 1.5 1.5 3.51472 1.5 6C1.5 8.48528 3.51472 10.5 6 10.5C8.48528 10.5 10.5 8.48528 10.5 6C10.5 3.51472 8.48528 1.5 6 1.5ZM7.25 2C7.66421 2 8 2.33579 8 2.75V3.2168C8.5946 3.53121 9 4.15558 9 4.875C9 5.29776 8.85812 5.68638 8.62207 6C8.85812 6.31362 9 6.70224 9 7.125C9 7.84426 8.59438 8.46774 8 8.78223V9.25C8 9.66421 7.66421 10 7.25 10C6.83579 10 6.5 9.66421 6.5 9.25V9H6V9.25C6 9.66421 5.66421 10 5.25 10C4.83579 10 4.5 9.66421 4.5 9.25V9H3.75C3.33579 9 3 8.66421 3 8.25C3.00001 7.83579 3.33579 7.5 3.75 7.5H4.00781V4.5H3.75C3.33579 4.5 3 4.16421 3 3.75C3 3.33579 3.33579 3 3.75 3H4.5V2.75C4.5 2.33579 4.83579 2 5.25 2C5.66421 2 6 2.33579 6 2.75V3H6.5V2.75C6.5 2.33579 6.83579 2 7.25 2ZM5.50781 7.5H7.125C7.33211 7.5 7.5 7.33211 7.5 7.125C7.49999 6.9179 7.3321 6.75 7.125 6.75H5.50781V7.5ZM5.50781 5.25H7.125L7.2002 5.24219C7.37124 5.20734 7.5 5.05633 7.5 4.875C7.5 4.66789 7.33211 4.5 7.125 4.5H5.50781V5.25Z"
      fill="currentColor"
    />
  </g>
  <defs>
    <clipPath id="clip0_882_392"><path fill="currentColor" d="M0 0H12V12H0z" /></clipPath>
  </defs>
</svg>

<svg xmlns="http://www.w3.org/2000/svg" width="12" height="12" fill="none" data-fui-icon="true" viewBox="0 0 12 12"><g clip-path="url(#a)"><path fill="currentColor" d="M6 0a6 6 0 1 1 0 12A6 6 0 0 1 6 0m0 1.5a4.5 4.5 0 1 0 0 9 4.5 4.5 0 0 0 0-9m1.25.5a.75.75 0 0 1 .75.75v.467A1.874 1.874 0 0 1 8.622 6 1.873 1.873 0 0 1 8 8.782v.468a.75.75 0 0 1-1.5 0V9H6v.25a.75.75 0 0 1-1.5 0V9h-.75a.75.75 0 0 1 0-1.5h.258v-3H3.75a.75.75 0 0 1 0-1.5h.75v-.25a.75.75 0 0 1 1.5 0V3h.5v-.25A.75.75 0 0 1 7.25 2M5.508 7.5h1.617a.375.375 0 1 0 0-.75H5.508zm0-2.25h1.617l.075-.008a.375.375 0 0 0-.075-.742H5.508z"/></g><defs><clipPath id="a"><path fill="currentColor" d="M0 0h12v12H0z"/></clipPath></defs></svg>
